X:254
T: Geistliche Lieder im Jacobston
N: A0611D
O: Europa, Mitteleuropa, Deutschland
N: Dresdner Hs. M. 53 (um 1560)
R: Romanze, Ballade, Lied, religioeses Lied
M: 4/2
L: 1/4
K: G
G4 | _B2B2c2c2 | d2dcd3
c | _B2c2_e2dd | c_BABc3
c | d2d2c2c2 | A4=F4 | z4
=F4 | _B2B2d2d2 | c_BABc3
d | _BAG2G2d2 | _B2A2G4 | z4

